images/content/johnson-solids/biaugmented-triangular-prism.svg

<?xml version="1.0" encoding="UTF-8"?>
<svg xmlns="http://www.w3.org/2000/svg" xmlns:xlink="http://www.w3.org/1999/xlink" width="173.95pt" height="183.06pt" viewBox="0 0 173.95 183.06" version="1.2">
<defs>
<clipPath id="clip1">
  <path d="M 0.417969 75 L 82 75 L 82 182 L 0.417969 182 Z M 0.417969 75 "/>
</clipPath>
<clipPath id="clip2">
  <path d="M 0.417969 75 L 83 75 L 83 182.125 L 0.417969 182.125 Z M 0.417969 75 "/>
</clipPath>
<clipPath id="clip3">
  <path d="M 81 55 L 173.480469 55 L 173.480469 174 L 81 174 Z M 81 55 "/>
</clipPath>
<clipPath id="clip4">
  <path d="M 81 54 L 173.480469 54 L 173.480469 175 L 81 175 Z M 81 54 "/>
</clipPath>
<clipPath id="clip5">
  <path d="M 63 119 L 173.480469 119 L 173.480469 182 L 63 182 Z M 63 119 "/>
</clipPath>
<clipPath id="clip6">
  <path d="M 62 118 L 173.480469 118 L 173.480469 182.125 L 62 182.125 Z M 62 118 "/>
</clipPath>
<clipPath id="clip7">
  <path d="M 0.417969 0 L 91 0 L 91 120 L 0.417969 120 Z M 0.417969 0 "/>
</clipPath>
<clipPath id="clip8">
  <path d="M 0.417969 0 L 92 0 L 92 120 L 0.417969 120 Z M 0.417969 0 "/>
</clipPath>
<clipPath id="clip9">
  <path d="M 162 55 L 173.480469 55 L 173.480469 174 L 162 174 Z M 162 55 "/>
</clipPath>
<clipPath id="clip10">
  <path d="M 162 54 L 173.480469 54 L 173.480469 175 L 162 175 Z M 162 54 "/>
</clipPath>
<clipPath id="clip11">
  <path d="M 63 111 L 173.480469 111 L 173.480469 182 L 63 182 Z M 63 111 "/>
</clipPath>
<clipPath id="clip12">
  <path d="M 62 111 L 173.480469 111 L 173.480469 182.125 L 62 182.125 Z M 62 111 "/>
</clipPath>
<clipPath id="clip13">
  <path d="M 0.417969 0 L 91 0 L 91 98 L 0.417969 98 Z M 0.417969 0 "/>
</clipPath>
<clipPath id="clip14">
  <path d="M 0.417969 0 L 92 0 L 92 98 L 0.417969 98 Z M 0.417969 0 "/>
</clipPath>
<clipPath id="clip15">
  <path d="M 0.417969 75 L 64 75 L 64 182 L 0.417969 182 Z M 0.417969 75 "/>
</clipPath>
<clipPath id="clip16">
  <path d="M 0.417969 75 L 64 75 L 64 182.125 L 0.417969 182.125 Z M 0.417969 75 "/>
</clipPath>
<clipPath id="clip17">
  <path d="M 27 97 L 163 97 L 163 182.125 L 27 182.125 Z M 27 97 "/>
</clipPath>
</defs>
<g id="surface1">
<g clip-path="url(#clip1)" clip-rule="nonzero">
<path style=" stroke:none;fill-rule:nonzero;fill:rgb(88.81073%,89.842224%,84.301758%);fill-opacity:1;" d="M 0.769531 75.929688 L 81.691406 119.082031 L 63.289062 181.777344 L 0.769531 75.929688 "/>
</g>
<g clip-path="url(#clip2)" clip-rule="nonzero">
<path style="fill:none;stroke-width:7.00001;stroke-linecap:round;stroke-linejoin:round;stroke:rgb(13.729858%,12.159729%,12.548828%);stroke-opacity:1;stroke-miterlimit:10;" d="M 3.518723 1067.40419 L 816.892754 633.66491 L 631.924369 3.492426 Z M 3.518723 1067.40419 " transform="matrix(0.0994891,0,0,-0.0994891,0.419457,182.124802)"/>
</g>
<g clip-path="url(#clip3)" clip-rule="nonzero">
<path style=" stroke:none;fill-rule:nonzero;fill:rgb(60.105896%,52.461243%,74.909973%);fill-opacity:1;" d="M 173.128906 173.683594 L 81.691406 119.082031 L 167.304688 55.160156 L 173.128906 173.683594 "/>
</g>
<g clip-path="url(#clip4)" clip-rule="nonzero">
<path style="fill:none;stroke-width:7.00001;stroke-linecap:round;stroke-linejoin:round;stroke:rgb(13.729858%,12.159729%,12.548828%);stroke-opacity:1;stroke-miterlimit:10;" d="M 1735.963004 84.845534 L 816.892754 633.66491 L 1677.421747 1276.166003 Z M 1735.963004 84.845534 " transform="matrix(0.0994891,0,0,-0.0994891,0.419457,182.124802)"/>
</g>
<g clip-path="url(#clip5)" clip-rule="nonzero">
<path style=" stroke:none;fill-rule:nonzero;fill:rgb(70.968628%,82.96051%,93.345642%);fill-opacity:1;" d="M 63.289062 181.777344 L 81.691406 119.082031 L 173.128906 173.683594 L 63.289062 181.777344 "/>
</g>
<g clip-path="url(#clip6)" clip-rule="nonzero">
<path style="fill:none;stroke-width:7.00001;stroke-linecap:round;stroke-linejoin:round;stroke:rgb(13.729858%,12.159729%,12.548828%);stroke-opacity:1;stroke-miterlimit:10;" d="M 631.924369 3.492426 L 816.892754 633.66491 L 1735.963004 84.845534 Z M 631.924369 3.492426 " transform="matrix(0.0994891,0,0,-0.0994891,0.419457,182.124802)"/>
</g>
<path style="fill-rule:nonzero;fill:rgb(74.084473%,45.101929%,50.779724%);fill-opacity:1;stroke-width:7.00001;stroke-linecap:round;stroke-linejoin:round;stroke:rgb(13.729858%,12.159729%,12.548828%);stroke-opacity:1;stroke-miterlimit:10;" d="M 909.749945 1827.105586 L 1677.421747 1276.166003 L 816.892754 633.66491 " transform="matrix(0.0994891,0,0,-0.0994891,0.419457,182.124802)"/>
<g clip-path="url(#clip7)" clip-rule="nonzero">
<path style=" stroke:none;fill-rule:nonzero;fill:rgb(74.084473%,45.101929%,50.779724%);fill-opacity:1;" d="M 81.691406 119.082031 L 0.769531 75.929688 L 90.929688 0.347656 "/>
</g>
<g clip-path="url(#clip8)" clip-rule="nonzero">
<path style="fill:none;stroke-width:7.00001;stroke-linecap:round;stroke-linejoin:round;stroke:rgb(13.729858%,12.159729%,12.548828%);stroke-opacity:1;stroke-miterlimit:10;" d="M 816.892754 633.66491 L 3.518723 1067.40419 L 909.749945 1827.105586 " transform="matrix(0.0994891,0,0,-0.0994891,0.419457,182.124802)"/>
</g>
<path style=" stroke:none;fill-rule:nonzero;fill:rgb(89.31427%,93.951416%,82.086182%);fill-opacity:1;" d="M 167.304688 55.160156 L 90.929688 0.347656 L 162.570312 111.726562 L 167.304688 55.160156 "/>
<path style="fill:none;stroke-width:7.00001;stroke-linecap:round;stroke-linejoin:round;stroke:rgb(13.729858%,12.159729%,12.548828%);stroke-opacity:1;stroke-miterlimit:10;" d="M 1677.421747 1276.166003 L 909.749945 1827.105586 L 1629.83489 707.597296 Z M 1677.421747 1276.166003 " transform="matrix(0.0994891,0,0,-0.0994891,0.419457,182.124802)"/>
<g clip-path="url(#clip9)" clip-rule="nonzero">
<path style=" stroke:none;fill-rule:nonzero;fill:rgb(83.711243%,72.512817%,22.543335%);fill-opacity:1;" d="M 173.128906 173.683594 L 167.304688 55.160156 L 162.570312 111.726562 L 173.128906 173.683594 "/>
</g>
<g clip-path="url(#clip10)" clip-rule="nonzero">
<path style="fill:none;stroke-width:7.00001;stroke-linecap:round;stroke-linejoin:round;stroke:rgb(13.729858%,12.159729%,12.548828%);stroke-opacity:1;stroke-miterlimit:10;" d="M 1735.963004 84.845534 L 1677.421747 1276.166003 L 1629.83489 707.597296 Z M 1735.963004 84.845534 " transform="matrix(0.0994891,0,0,-0.0994891,0.419457,182.124802)"/>
</g>
<g clip-path="url(#clip11)" clip-rule="nonzero">
<path style=" stroke:none;fill-rule:nonzero;fill:rgb(73.753357%,38.719177%,38.076782%);fill-opacity:1;" d="M 173.128906 173.683594 L 162.570312 111.726562 L 63.289062 181.777344 L 173.128906 173.683594 "/>
</g>
<g clip-path="url(#clip12)" clip-rule="nonzero">
<path style="fill:none;stroke-width:7.00001;stroke-linecap:round;stroke-linejoin:round;stroke:rgb(13.729858%,12.159729%,12.548828%);stroke-opacity:1;stroke-miterlimit:10;" d="M 1735.963004 84.845534 L 1629.83489 707.597296 L 631.924369 3.492426 Z M 1735.963004 84.845534 " transform="matrix(0.0994891,0,0,-0.0994891,0.419457,182.124802)"/>
</g>
<g clip-path="url(#clip13)" clip-rule="nonzero">
<path style=" stroke:none;fill-rule:nonzero;fill:rgb(12.472534%,44.700623%,76.220703%);fill-opacity:1;" d="M 0.769531 75.929688 L 27.730469 97.597656 L 90.929688 0.347656 L 0.769531 75.929688 "/>
</g>
<g clip-path="url(#clip14)" clip-rule="nonzero">
<path style="fill:none;stroke-width:7.00001;stroke-linecap:round;stroke-linejoin:round;stroke:rgb(13.729858%,12.159729%,12.548828%);stroke-opacity:1;stroke-miterlimit:10;" d="M 3.518723 1067.40419 L 274.512523 849.611868 L 909.749945 1827.105586 Z M 3.518723 1067.40419 " transform="matrix(0.0994891,0,0,-0.0994891,0.419457,182.124802)"/>
</g>
<g clip-path="url(#clip15)" clip-rule="nonzero">
<path style=" stroke:none;fill-rule:nonzero;fill:rgb(13.729858%,12.159729%,12.548828%);fill-opacity:1;" d="M 0.769531 75.929688 L 63.289062 181.777344 L 27.730469 97.597656 L 0.769531 75.929688 "/>
</g>
<g clip-path="url(#clip16)" clip-rule="nonzero">
<path style="fill:none;stroke-width:7.00001;stroke-linecap:round;stroke-linejoin:round;stroke:rgb(13.729858%,12.159729%,12.548828%);stroke-opacity:1;stroke-miterlimit:10;" d="M 3.518723 1067.40419 L 631.924369 3.492426 L 274.512523 849.611868 Z M 3.518723 1067.40419 " transform="matrix(0.0994891,0,0,-0.0994891,0.419457,182.124802)"/>
</g>
<path style=" stroke:none;fill-rule:nonzero;fill:rgb(72.306824%,42.123413%,48.342896%);fill-opacity:1;" d="M 27.730469 97.597656 L 63.289062 181.777344 L 162.570312 111.726562 L 27.730469 97.597656 "/>
<g clip-path="url(#clip17)" clip-rule="nonzero">
<path style="fill:none;stroke-width:7.00001;stroke-linecap:round;stroke-linejoin:round;stroke:rgb(13.729858%,12.159729%,12.548828%);stroke-opacity:1;stroke-miterlimit:10;" d="M 274.512523 849.611868 L 631.924369 3.492426 L 1629.83489 707.597296 Z M 274.512523 849.611868 " transform="matrix(0.0994891,0,0,-0.0994891,0.419457,182.124802)"/>
</g>
<path style=" stroke:none;fill-rule:nonzero;fill:rgb(78.381348%,74.966431%,83.560181%);fill-opacity:1;" d="M 90.929688 0.347656 L 27.730469 97.597656 L 162.570312 111.726562 L 90.929688 0.347656 "/>
<path style="fill:none;stroke-width:7.00001;stroke-linecap:round;stroke-linejoin:round;stroke:rgb(13.729858%,12.159729%,12.548828%);stroke-opacity:1;stroke-miterlimit:10;" d="M 909.749945 1827.105586 L 274.512523 849.611868 L 1629.83489 707.597296 Z M 909.749945 1827.105586 " transform="matrix(0.0994891,0,0,-0.0994891,0.419457,182.124802)"/>
</g>
</svg>

<svg xmlns="http://www.w3.org/2000/svg" width="231.933" height="244.08" viewBox="0 0 173.95 183.06" version="1.2"><defs><clipPath id="a"><path d="M.418 75H82v107H.418Zm0 0"/></clipPath><clipPath id="b"><path d="M.418 75H83v107.125H.418Zm0 0"/></clipPath><clipPath id="c"><path d="M81 55h92.48v119H81Zm0 0"/></clipPath><clipPath id="d"><path d="M81 54h92.48v121H81Zm0 0"/></clipPath><clipPath id="e"><path d="M63 119h110.48v63H63Zm0 0"/></clipPath><clipPath id="f"><path d="M62 118h111.48v64.125H62Zm0 0"/></clipPath><clipPath id="g"><path d="M.418 0H91v120H.418Zm0 0"/></clipPath><clipPath id="h"><path d="M.418 0H92v120H.418Zm0 0"/></clipPath><clipPath id="i"><path d="M162 55h11.48v119H162Zm0 0"/></clipPath><clipPath id="j"><path d="M162 54h11.48v121H162Zm0 0"/></clipPath><clipPath id="k"><path d="M63 111h110.48v71H63Zm0 0"/></clipPath><clipPath id="l"><path d="M62 111h111.48v71.125H62Zm0 0"/></clipPath><clipPath id="m"><path d="M.418 0H91v98H.418Zm0 0"/></clipPath><clipPath id="n"><path d="M.418 0H92v98H.418Zm0 0"/></clipPath><clipPath id="o"><path d="M.418 75H64v107H.418Zm0 0"/></clipPath><clipPath id="p"><path d="M.418 75H64v107.125H.418Zm0 0"/></clipPath><clipPath id="q"><path d="M27 97h136v85.125H27Zm0 0"/></clipPath></defs><g clip-path="url(#a)"><path style="stroke:none;fill-rule:nonzero;fill:#e2e5d7;fill-opacity:1" d="m.77 75.93 80.921 43.152-18.402 62.695L.77 75.93"/></g><g clip-path="url(#b)"><path style="fill:none;stroke-width:7.00001;stroke-linecap:round;stroke-linejoin:round;stroke:#231f20;stroke-opacity:1;stroke-miterlimit:10" d="m3.519 1067.404 813.374-433.74L631.924 3.493Zm0 0" transform="matrix(.09949 0 0 -.09949 .42 182.125)"/></g><g clip-path="url(#c)"><path style="stroke:none;fill-rule:nonzero;fill:#9986bf;fill-opacity:1" d="M173.129 173.684 81.69 119.082l85.614-63.922 5.824 118.524"/></g><g clip-path="url(#d)"><path style="fill:none;stroke-width:7.00001;stroke-linecap:round;stroke-linejoin:round;stroke:#231f20;stroke-opacity:1;stroke-miterlimit:10" d="m1735.963 84.846-919.07 548.819 860.529 642.501Zm0 0" transform="matrix(.09949 0 0 -.09949 .42 182.125)"/></g><g clip-path="url(#e)"><path style="stroke:none;fill-rule:nonzero;fill:#b5d4ee;fill-opacity:1" d="m63.29 181.777 18.401-62.695 91.438 54.602-109.84 8.093"/></g><g clip-path="url(#f)"><path style="fill:none;stroke-width:7.00001;stroke-linecap:round;stroke-linejoin:round;stroke:#231f20;stroke-opacity:1;stroke-miterlimit:10" d="m631.924 3.492 184.969 630.173 919.07-548.82Zm0 0" transform="matrix(.09949 0 0 -.09949 .42 182.125)"/></g><path style="fill-rule:nonzero;fill:#bd7381;fill-opacity:1;stroke-width:7.00001;stroke-linecap:round;stroke-linejoin:round;stroke:#231f20;stroke-opacity:1;stroke-miterlimit:10" d="m909.75 1827.106 767.672-550.94-860.53-642.501" transform="matrix(.09949 0 0 -.09949 .42 182.125)"/><g clip-path="url(#g)"><path style="stroke:none;fill-rule:nonzero;fill:#bd7381;fill-opacity:1" d="M81.691 119.082.77 75.93 90.93.348"/></g><g clip-path="url(#h)"><path style="fill:none;stroke-width:7.00001;stroke-linecap:round;stroke-linejoin:round;stroke:#231f20;stroke-opacity:1;stroke-miterlimit:10" d="M816.893 633.665 3.519 1067.405l906.23 759.7" transform="matrix(.09949 0 0 -.09949 .42 182.125)"/></g><path style="stroke:none;fill-rule:nonzero;fill:#e4f0d1;fill-opacity:1" d="M167.305 55.16 90.93.348l71.64 111.379 4.735-56.567"/><path style="fill:none;stroke-width:7.00001;stroke-linecap:round;stroke-linejoin:round;stroke:#231f20;stroke-opacity:1;stroke-miterlimit:10" d="m1677.422 1276.166-767.672 550.94 720.085-1119.509Zm0 0" transform="matrix(.09949 0 0 -.09949 .42 182.125)"/><g clip-path="url(#i)"><path style="stroke:none;fill-rule:nonzero;fill:#d5b939;fill-opacity:1" d="M173.129 173.684 167.305 55.16l-4.735 56.567 10.559 61.957"/></g><g clip-path="url(#j)"><path style="fill:none;stroke-width:7.00001;stroke-linecap:round;stroke-linejoin:round;stroke:#231f20;stroke-opacity:1;stroke-miterlimit:10" d="m1735.963 84.846-58.541 1191.32-47.587-568.569Zm0 0" transform="matrix(.09949 0 0 -.09949 .42 182.125)"/></g><g clip-path="url(#k)"><path style="stroke:none;fill-rule:nonzero;fill:#bc6361;fill-opacity:1" d="m173.129 173.684-10.559-61.957-99.28 70.05 109.839-8.093"/></g><g clip-path="url(#l)"><path style="fill:none;stroke-width:7.00001;stroke-linecap:round;stroke-linejoin:round;stroke:#231f20;stroke-opacity:1;stroke-miterlimit:10" d="m1735.963 84.846-106.128 622.751L631.925 3.492Zm0 0" transform="matrix(.09949 0 0 -.09949 .42 182.125)"/></g><g clip-path="url(#m)"><path style="stroke:none;fill-rule:nonzero;fill:#2072c2;fill-opacity:1" d="m.77 75.93 26.96 21.668L90.93.348.77 75.93"/></g><g clip-path="url(#n)"><path style="fill:none;stroke-width:7.00001;stroke-linecap:round;stroke-linejoin:round;stroke:#231f20;stroke-opacity:1;stroke-miterlimit:10" d="m3.519 1067.404 270.994-217.792 635.237 977.494Zm0 0" transform="matrix(.09949 0 0 -.09949 .42 182.125)"/></g><g clip-path="url(#o)"><path style="stroke:none;fill-rule:nonzero;fill:#231f20;fill-opacity:1" d="m.77 75.93 62.52 105.847-35.56-84.18L.77 75.93"/></g><g clip-path="url(#p)"><path style="fill:none;stroke-width:7.00001;stroke-linecap:round;stroke-linejoin:round;stroke:#231f20;stroke-opacity:1;stroke-miterlimit:10" d="M3.519 1067.404 631.924 3.492l-357.411 846.12Zm0 0" transform="matrix(.09949 0 0 -.09949 .42 182.125)"/></g><path style="stroke:none;fill-rule:nonzero;fill:#b86b7b;fill-opacity:1" d="m27.73 97.598 35.56 84.18 99.28-70.051-134.84-14.13"/><g clip-path="url(#q)"><path style="fill:none;stroke-width:7.00001;stroke-linecap:round;stroke-linejoin:round;stroke:#231f20;stroke-opacity:1;stroke-miterlimit:10" d="M274.513 849.612 631.924 3.492l997.91 704.105Zm0 0" transform="matrix(.09949 0 0 -.09949 .42 182.125)"/></g><path style="stroke:none;fill-rule:nonzero;fill:#c8bfd5;fill-opacity:1" d="m90.93.348-63.2 97.25 134.84 14.129L90.93.347"/><path style="fill:none;stroke-width:7.00001;stroke-linecap:round;stroke-linejoin:round;stroke:#231f20;stroke-opacity:1;stroke-miterlimit:10" d="M909.75 1827.106 274.513 849.612l1355.322-142.015Zm0 0" transform="matrix(.09949 0 0 -.09949 .42 182.125)"/></svg>
